!!!COM:	Du Fay, Guillaume
!!!CDT:	~1397/08/05/-1474/11/27
!!!OPR:	Missa Ecce ancilla domini
!!!ONM:	4
!!!OTL:	Sanctus
!!!AGN:	Mass; Sanctus
!!!SCT:	Duf1003d
!!!SCA:	Duf1003d
!!!voices:	4
!!!voices-OPR:	4
**kern	**text	**kern	**text	**kern	**text	**kern	**text
*staff4	*staff4	*staff3	*staff3	*staff2	*staff2	*staff1	*staff1
*Ivox	*	*Ivox	*	*Ivox	*	*Ivox	*
*I"Tenor2	*	*I"Tenor1	*	*I"Contratenor	*	*I"Cantus	*
*I'T2	*	*I'T1	*	*I'Ct	*	*I'Cn	*
*>[A,B,C,D,E]	*>[A,B,C,D,E]	*>[A,B,C,D,E]	*>[A,B,C,D,E]	*>[A,B,C,D,E]	*>[A,B,C,D,E]	*>[A,B,C,D,E]	*>[A,B,C,D,E]
*>A	*>A	*>A	*>A	*>A	*>A	*>A	*>A
*clefF4	*	*clefGv2	*	*clefGv2	*	*clefG2	*
*k[b-]	*	*k[]	*	*k[]	*	*k[]	*
*M3/1	*	*M3/1	*	*M3/1	*	*M3/1	*
*met(O)	*	*met(O)	*	*met(O)	*	*met(O)	*
!!section: Sanctus
!!!OMD: Sanctus
=1-	=1-	=1-	=1-	=1-	=1-	=1-	=1-
1G	San-	0.r	.	1.G	San-	0.g	San-
2E\	.	.	.	.	.	.	.
2F\	.	.	.	2A/	.	.	.
1G	.	.	.	1B	.	.	.
=2	=2	=2	=2	=2	=2	=2	=2
1C	.	0.r	.	1c	.	1e	.
0BB-	.	.	.	1.d	.	1.f	.
.	.	.	.	2c\	.	2e/	.
=3	=3	=3	=3	=3	=3	=3	=3
1.C	.	0.r	.	0c	.	1e	.
.	.	.	.	.	.	1.a	.
2.AA/	.	.	.	.	.	.	.
.	.	.	.	1c	.	.	.
4BB-/	.	.	.	.	.	.	.
2C/	.	.	.	.	.	2g/	.
=4	=4	=4	=4	=4	=4	=4	=4
1GG	.	0.r	.	1B	.	1.g	.
0D	.	.	.	0A	.	.	.
.	.	.	.	.	.	2f#i/	.
.	.	.	.	.	.	2f#i/	.
.	.	.	.	.	.	2e/	.
=5	=5	=5	=5	=5	=5	=5	=5
1E	-ctus,	0.r	.	1G	-ctus,	1g	-ctus,
1C	.	.	.	1r	.	2.e/	.
.	.	.	.	.	.	4c/	.
2r	.	.	.	1G	san-	1d	.
2BB-/	san-	.	.	.	.	.	.
=6	=6	=6	=6	=6	=6	=6	=6
2C/	.	0.r	.	2.E/	.	1c	.
2AA/	.	.	.	.	.	.	.
.	.	.	.	4C/	.	.	.
1BB-	.	.	.	1D	.	2r	.
.	.	.	.	.	.	2f/	san-
2C/	.	.	.	1C	.	2e/	.
2E-\	.	.	.	.	.	2c/	.
=7	=7	=7	=7	=7	=7	=7	=7
2D\	.	0.r	.	2r	.	1d	.
2BB-/	.	.	.	2F/	.	.	.
2C/	.	.	.	2E/	.	2c/	.
2AA/	.	.	.	2C/	.	1c	.
1GG	.	.	.	1D	.	.	.
.	.	.	.	.	.	2B/	.
=8	=8	=8	=8	=8	=8	=8	=8
0G	-ctus,	0.r	.	0C	-ctus,	1c	-ctus,
.	.	.	.	.	.	2r	.
.	.	.	.	.	.	2c/	san-
1G	san-	.	.	1r	.	2d/	.
.	.	.	.	.	.	[2e/	.
=9	=9	=9	=9	=9	=9	=9	=9
2GG/	.	0.r	.	1G	san-	4e/]	.
.	.	.	.	.	.	2d/	.
2BB-/	.	.	.	.	.	.	.
.	.	.	.	.	.	4B/	.
2AA/	.	.	.	2F/	.	4c/	.
.	.	.	.	.	.	4d/	.
2GG/	.	.	.	1G	.	2B/	.
1C	.	.	.	.	.	1e	.
.	.	.	.	2E/	.	.	.
=10	=10	=10	=10	=10	=10	=10	=10
2D\	.	0.r	.	2F/	.	1d	.
1GG	.	.	.	2.G/	.	.	.
.	.	.	.	.	.	2B/	.
.	.	.	.	4F/	.	.	.
2BB-/	.	.	.	2G/	.	2d/	.
1AA	.	.	.	2A/	.	2c/	.
.	.	.	.	2F#i/	.	2A/	.
=11	=11	=11	=11	=11	=11	=11	=11
1GG	.	0.r	.	1G	.	2B/	.
.	.	.	.	.	.	2G/	.
2.G\	.	.	.	2.B\	.	2r	.
.	.	.	.	.	.	4g/	.
4F\	.	.	.	4c\	.	4a/	.
2D\	.	.	.	2d\	.	4b/	.
.	.	.	.	.	.	8a/L	.
.	.	.	.	.	.	8b/J	.
[2C/	.	.	.	2e\	.	[2cc\	.
=12	=12	=12	=12	=12	=12	=12	=12
2C/]	.	0.r	.	2c\	.	4cc\]	.
.	.	.	.	.	.	4a\	.
2G\	.	.	.	2.d\	.	2b\	.
2F\	.	.	.	.	.	2a/	.
.	.	.	.	4c\	.	.	.
2G\	.	.	.	2B\	.	2g/	.
1D	.	.	.	1A	.	4f#i/	.
.	.	.	.	.	.	2f#i/	.
.	.	.	.	.	.	4e/	.
=13	=13	=13	=13	=13	=13	=13	=13
1GG	-ctus,	0.r	.	1G	-ctus,	0g	-ctus,
1C	.	.	.	2r	.	.	.
.	.	.	.	2c\	san-	.	.
1GG	.	.	.	2B\	.	1r	.
.	.	.	.	2G/	.	.	.
=14	=14	=14	=14	=14	=14	=14	=14
0.r	.	0.r	.	2A/	.	2cc\	san-
.	.	.	.	2.G/	.	2b\	.
.	.	.	.	.	.	2g/	.
.	.	.	.	4E/	.	.	.
.	.	.	.	2F/	.	2a/	.
.	.	.	.	2G/	.	2.g/	.
.	.	.	.	2C/	.	.	.
.	.	.	.	.	.	4e/	.
=15	=15	=15	=15	=15	=15	=15	=15
0.r	.	0.r	.	2D/	.	2f/	.
.	.	.	.	1E	.	2g/	.
.	.	.	.	.	.	2c/	.
.	.	.	.	2F/	.	2d/	.
.	.	.	.	2E/	.	2.e/	.
.	.	.	.	2A/	.	.	.
.	.	.	.	.	.	4f/	.
=16	=16	=16	=16	=16	=16	=16	=16
0.r	.	0.r	.	2G/	.	4e/	.
.	.	.	.	.	.	4d/	.
.	.	.	.	1F	.	4f/	.
.	.	.	.	.	.	4e/	.
.	.	.	.	.	.	4d/	.
.	.	.	.	.	.	4c/	.
.	.	.	.	2E/	.	1c	.
.	.	.	.	1D	.	.	.
.	.	.	.	.	.	2B/	.
=17	=17	=17	=17	=17	=17	=17	=17
0.r	.	[0.G	Ec-	0.C	-ctus,	1c	-ctus,
.	.	.	.	.	.	1r	.
.	.	.	.	.	.	1r	.
=18	=18	=18	=18	=18	=18	=18	=18
1.C	do-	0.G]	.	0.r	.	1.e	do-
2D\	.	.	.	.	.	2f/	.
1E	.	.	.	.	.	1g	.
=19	=19	=19	=19	=19	=19	=19	=19
1C	.	0.c	.	1G	do-	2e/	.
.	.	.	.	.	.	2g/	.
1.F	.	.	.	0A	.	2f/	.
.	.	.	.	.	.	1a	.
2E\	.	.	.	.	.	2g/	.
=20	=20	=20	=20	=20	=20	=20	=20
1C	.	0c	-ce	1G	.	2e/	.
.	.	.	.	.	.	2f/	.
2E\	.	.	.	2.C/	.	1g	.
2F\	.	.	.	.	.	.	.
.	.	.	.	4D/	.	.	.
1G	.	1B	an-	1E	.	2r	.
.	.	.	.	.	.	2g/	.
=21	=21	=21	=21	=21	=21	=21	=21
1D	.	1A	.	1F	.	2f/	.
.	.	.	.	.	.	1d	.
2GG/	.	0G	.	2G/	.	.	.
1C	.	.	.	1E	.	2e/	.
.	.	.	.	.	.	2c/	.
2BB-/	.	.	.	2D/	.	[2d/	-mi-
=22	=22	=22	=22	=22	=22	=22	=22
1AA	-mi-	1A	-cil-	2.F#i/	-mi-	2d/]	.
.	.	.	.	.	.	2c/	.
.	.	.	.	4E/	.	.	.
0GG	-nus	0B	.	1G	-nus	1d	-nus
.	.	.	.	1D	.	1r	.
=23	=23	=23	=23	=23	=23	=23	=23
1.D	de-	0.A	-la	1r	.	1d	de-
.	.	.	.	1.d	de-	2f/	.
2E\	.	.	.	.	.	2g/	.
1F	.	.	.	.	.	1a	.
.	.	.	.	2c\	.	.	.
=24	=24	=24	=24	=24	=24	=24	=24
1E	.	0.r	.	1c	.	1g	.
0D	.	.	.	2d\	.	1.f	.
.	.	.	.	2A/	.	.	.
.	.	.	.	1B	.	.	.
.	.	.	.	.	.	2e/	.
=25	=25	=25	=25	=25	=25	=25	=25
1C	.	0G	do-	1c	.	1e	.
2r	.	.	.	1d	.	2.g/	.
1GG	.	.	.	.	.	.	.
.	.	.	.	.	.	4f/	.
.	.	1G	.	2r	.	1d	.
2BB-/	.	.	.	2G/	.	.	.
=26	=26	=26	=26	=26	=26	=26	=26
2AA/	.	2F/	.	2A/	.	2r	.
1GG	.	2G/	.	1B	.	2.d/	.
.	.	2D/	.	.	.	.	.
.	.	.	.	.	.	4c/	.
2D\	.	2F/	.	2A/	.	2d/	.
1C	.	1E	.	1c	.	2e/	.
.	.	.	.	.	.	2c/	.
=27	=27	=27	=27	=27	=27	=27	=27
1GG	-us	2D/	.	1B	-us	1d	-us
.	.	1G	.	.	.	.	.
1r	.	.	.	0d	.	1g	.
.	.	2F/	.	.	.	.	.
1GG	sa-	1G	.	.	.	2r	.
.	.	.	.	.	.	2g/	sa-
=28	=28	=28	=28	=28	=28	=28	=28
0D	.	1A	.	1d	sa-	2f/	.
.	.	.	.	.	.	2.a/	-ba-
.	.	1F	.	2A/	-ba-	.	.
.	.	.	.	.	.	4g/	.
.	.	.	.	2B\	.	2f/	.
1C	.	[1G	.	1c	-oth,	1e	-oth,
=29	=29	=29	=29	=29	=29	=29	=29
1E	.	1G]	.	1B	.	2r	.
.	.	.	.	.	.	2g/	sa-
0F	.	0c	.	0A	.	2f/	.
.	.	.	.	.	.	2g/	.
.	.	.	.	.	.	1a	.
=30	=30	=30	=30	=30	=30	=30	=30
1G	-ba-	1B	.	1r	.	2d/	.
.	.	.	.	.	.	2g/	.
0D	.	0A	.	0d	sa-	2a/	.
.	.	.	.	.	.	1f#i	-ba-
.	.	.	.	.	.	2e/	.
=31	=31	=31	=31	=31	=31	=31	=31
1GG	-oth,	[0.G	-mi-	1d	.	2g/	-oth,
.	.	.	.	.	.	2r	.
1C	.	.	.	1c	.	2e/	sa-
.	.	.	.	.	.	2.g/	.
1GG	.	.	.	2.B\	.	.	.
.	.	.	.	.	.	4f/	.
.	.	.	.	.	.	[2d/	.
.	.	.	.	4c\	.	.	.
=32	=32	=32	=32	=32	=32	=32	=32
2r	.	0.G]	.	2d\	.	2d/]	.
1C	sa-	.	.	1e	.	2c/	.
.	.	.	.	.	.	2e/	.
2D\	.	.	.	2d\	.	2f/	.
1E	-ba-	.	.	2.B\	-ba-	[1g	.
.	.	.	.	4A/	.	.	.
=33	=33	=33	=33	=33	=33	=33	=33
0.Cl	-oth.	0.Gl	-ni.	0.cl	-oth.	2g/]	.
.	.	.	.	.	.	2e/	-ba-
.	.	.	.	.	.	0el	-oth.
!!LO:LB:i:g=z
=34||	=34||	=34||	=34||	=34||	=34||	=34||	=34||
*>B	*>B	*>B	*>B	*>B	*>B	*>B	*>B
*clefGv2	*	*clefG2	*	*clefGv2	*	*clefG2	*
*k[]	*	*k[]	*	*k[]	*	*k[]	*
*M3/1	*	*M3/1	*	*M3/1	*	*M3/1	*
*met(O)	*	*met(O)	*	*met(O)	*	*met(O)	*
!!section: Pleni
!!!OMD: Pleni
0.r	.	0.r	.	0c	Ple-	1c	Ple-
.	.	.	.	.	.	2e/	.
.	.	.	.	.	.	2f/	.
.	.	.	.	1c	.	[1g	.
=35	=35	=35	=35	=35	=35	=35	=35
0.r	.	0.r	.	2G/	.	2g/]	.
.	.	.	.	2A/	.	2f/	.
.	.	.	.	2G/	.	2g/	.
.	.	.	.	1c	.	2e/	.
.	.	.	.	.	.	1d	.
.	.	.	.	2B\	.	.	.
=36	=36	=36	=36	=36	=36	=36	=36
0.r	.	0.r	.	1c	.	2.c/	.
.	.	.	.	.	.	4A/	.
.	.	.	.	2d\	.	2B/	.
.	.	.	.	2.e\	.	2c/	.
.	.	.	.	.	.	1A	.
.	.	.	.	4d\	.	.	.
.	.	.	.	2c\	.	.	.
=37	=37	=37	=37	=37	=37	=37	=37
0.r	.	0.r	.	2B\	.	0G	-ni
.	.	.	.	2.d\	.	.	.
.	.	.	.	4c\	.	.	.
.	.	.	.	2B\	.	.	.
.	.	.	.	1A	.	2r	.
.	.	.	.	.	.	2c/	sunt
=38	=38	=38	=38	=38	=38	=38	=38
0.r	.	0.r	.	0G	.	2B/	.
.	.	.	.	.	.	2.d/	.
.	.	.	.	.	.	4c/	.
.	.	.	.	.	.	2B/	.
.	.	.	.	1F#i	-ni	2.A/	.
.	.	.	.	.	.	4G/	.
=39	=39	=39	=39	=39	=39	=39	=39
0.r	.	0.r	.	1G	sunt	1G	.
.	.	.	.	1C	.	2r	.
.	.	.	.	.	.	2.c/	ce-
.	.	.	.	1E	ce-	.	.
.	.	.	.	.	.	4B/	.
.	.	.	.	.	.	2c/	.
=40	=40	=40	=40	=40	=40	=40	=40
0.r	.	0.r	.	2F/	.	2d/	.
.	.	.	.	2E/	.	2e/	.
.	.	.	.	1G	.	4d/	.
.	.	.	.	.	.	2e/	.
.	.	.	.	.	.	4g/	.
.	.	.	.	2A/	.	4f/	.
.	.	.	.	.	.	4e/	.
.	.	.	.	2G/	.	[2g/	.
=41	=41	=41	=41	=41	=41	=41	=41
0.r	.	0.r	.	1B	.	4g/]	.
.	.	.	.	.	.	4f/	.
.	.	.	.	.	.	2g/	.
.	.	.	.	2c\	.	2.a/	.
.	.	.	.	2.d\	.	.	.
.	.	.	.	.	.	4g/	.
.	.	.	.	.	.	4f/	.
.	.	.	.	4B\	.	4d/	.
.	.	.	.	2c\	.	2e/	.
=42	=42	=42	=42	=42	=42	=42	=42
0.r	.	0.r	.	2d\	.	2f/	.
.	.	.	.	4D/	.	1d	.
.	.	.	.	2G/	.	.	.
.	.	.	.	4F/	.	.	.
.	.	.	.	4G/	.	2.g/	.
.	.	.	.	4B-i/	.	.	.
.	.	.	.	1A	.	.	.
.	.	.	.	.	.	4f#i/	.
.	.	.	.	.	.	4f#i/	.
.	.	.	.	.	.	4e/	.
=43	=43	=43	=43	=43	=43	=43	=43
0.r	.	0.r	.	1G	-li	0.g	-li
.	.	.	.	1r	.	.	.
.	.	.	.	1C	et	.	.
=44	=44	=44	=44	=44	=44	=44	=44
0.r	.	0.r	.	1D	ter-	1r	.
.	.	.	.	0E	.	1r	.
.	.	.	.	.	.	1c	et
=45	=45	=45	=45	=45	=45	=45	=45
0.r	.	0.r	.	1F	.	1d	ter-
.	.	.	.	2E/	.	0e	.
.	.	.	.	1G	.	.	.
.	.	.	.	2F/	.	.	.
=46	=46	=46	=46	=46	=46	=46	=46
0.r	.	0.r	.	1D	.	1f	.
.	.	.	.	0C	.	2e/	.
.	.	.	.	.	.	1g	.
.	.	.	.	.	.	2f/	.
=47	=47	=47	=47	=47	=47	=47	=47
0.r	.	0.r	.	1BB	.	1d	.
.	.	.	.	2.C/	.	1c	-ra,
.	.	.	.	4D/	.	.	.
.	.	.	.	2E/	.	2r	.
.	.	.	.	2F/	.	2c/	ter-
=48	=48	=48	=48	=48	=48	=48	=48
0.r	.	0.r	.	1D	.	2B/	.
.	.	.	.	.	.	2A/	.
.	.	.	.	1C	-ra,	2.c/	.
.	.	.	.	.	.	4d/	.
.	.	.	.	1r	.	2e/	.
.	.	.	.	.	.	2f/	.
=49	=49	=49	=49	=49	=49	=49	=49
0.r	.	0.r	.	1G	ter-	1d	.
.	.	.	.	2A/	.	2c/	.
.	.	.	.	1c	.	2r	.
.	.	.	.	.	.	1g	.
.	.	.	.	2B\	.	.	.
=50	=50	=50	=50	=50	=50	=50	=50
0.r	.	0.r	.	2.A/	.	2a/	.
.	.	.	.	.	.	2cc\	.
.	.	.	.	4F/	.	.	.
.	.	.	.	2G/	.	2b\	.
.	.	.	.	2A/	.	1a	.
.	.	.	.	4D/	.	.	.
.	.	.	.	2F/	.	.	.
.	.	.	.	.	.	2a/	.
.	.	.	.	4G/	.	.	.
=51	=51	=51	=51	=51	=51	=51	=51
0.r	.	0.r	.	2E/	.	2g/	.
.	.	.	.	2D/	.	2.f/	.
.	.	.	.	1G	.	.	.
.	.	.	.	.	.	4e/	.
.	.	.	.	.	.	1e	.
.	.	.	.	1F	.	.	.
.	.	.	.	.	.	2d/	.
=52	=52	=52	=52	=52	=52	=52	=52
0.r	.	0.r	.	0E	-ra	1e	-ra
.	.	.	.	.	.	1r	.
.	.	.	.	1r	.	[1e	glo-
=53	=53	=53	=53	=53	=53	=53	=53
0.r	.	0.r	.	1.E	glo-	2e/]	.
.	.	.	.	.	.	2.g/	.
.	.	.	.	.	.	4f/	.
.	.	.	.	1G	.	4e/	.
.	.	.	.	.	.	4d/	.
.	.	.	.	.	.	[1d	.
.	.	.	.	2F/	.	.	.
=54	=54	=54	=54	=54	=54	=54	=54
0.r	.	0.r	.	1.D	.	2d/]	.
.	.	.	.	.	.	2.f/	.
.	.	.	.	.	.	4e/	.
.	.	.	.	1F	.	4d/	.
.	.	.	.	.	.	4c/	.
.	.	.	.	.	.	1c	.
.	.	.	.	2E/	.	.	.
=55	=55	=55	=55	=55	=55	=55	=55
0.r	.	0.r	.	0C	.	2r	.
.	.	.	.	.	.	2.e/	.
.	.	.	.	.	.	4f/	.
.	.	.	.	.	.	2g/	.
.	.	.	.	1c	.	4a/	.
.	.	.	.	.	.	4.g/	.
.	.	.	.	.	.	8f/	.
.	.	.	.	.	.	4e/	.
=56	=56	=56	=56	=56	=56	=56	=56
0.r	.	0.r	.	2B\	.	1d	.
.	.	.	.	2A/	.	.	.
.	.	.	.	2.c\	.	1c	.
.	.	.	.	4B\	.	.	.
.	.	.	.	1G	.	2r	.
.	.	.	.	.	.	[2B/	.
=57	=57	=57	=57	=57	=57	=57	=57
0.r	.	0.r	.	2r	.	4B/]	.
.	.	.	.	.	.	4G/	.
.	.	.	.	2F/	.	2A/	.
.	.	.	.	2G/	.	2B/	.
.	.	.	.	2E/	.	2c/	.
.	.	.	.	1F#i	-ri-	2.A/	-ri-
.	.	.	.	.	.	4G/	.
=58	=58	=58	=58	=58	=58	=58	=58
0.r	.	0.r	.	1G	-a	1G	-a
.	.	.	.	2.C/	tu-	1r	.
.	.	.	.	4D/	.	.	.
.	.	.	.	2E/	.	2.c/	tu-
.	.	.	.	2F/	.	.	.
.	.	.	.	.	.	4d/	.
=59	=59	=59	=59	=59	=59	=59	=59
0.r	.	0.r	.	2G/	.	2e/	.
.	.	.	.	2A/	.	2f/	.
.	.	.	.	2G/	.	2.g/	.
.	.	.	.	2.c\	.	.	.
.	.	.	.	.	.	4f/	.
.	.	.	.	.	.	4e/	.
.	.	.	.	4A/	.	4c/	.
.	.	.	.	2B\	.	2d/	.
=60	=60	=60	=60	=60	=60	=60	=60
0.r	.	0.r	.	2c\	.	2e/	.
.	.	.	.	1A	.	4f/	.
.	.	.	.	.	.	4.e/	.
.	.	.	.	.	.	8d/	.
.	.	.	.	.	.	4c/	.
.	.	.	.	2G/	.	2B/	.
.	.	.	.	2E/	.	2c/	.
.	.	.	.	[2F/	.	4d/	.
.	.	.	.	.	.	[4c/	.
=61	=61	=61	=61	=61	=61	=61	=61
0.r	.	0.r	.	2F/]	.	8c/L]	.
.	.	.	.	.	.	8B/J	.
.	.	.	.	.	.	4A/	.
.	.	.	.	2G/	.	2B/	.
.	.	.	.	2C/	.	2G/	.
.	.	.	.	2E/	.	1c	.
.	.	.	.	1D	.	.	.
.	.	.	.	.	.	2B/	.
=62	=62	=62	=62	=62	=62	=62	=62
0.r	.	0.r	.	0.Cl	-a.	0.cl	-a.
!!LO:LB:i:g=z
=63||	=63||	=63||	=63||	=63||	=63||	=63||	=63||
*>C	*>C	*>C	*>C	*>C	*>C	*>C	*>C
*clefF4	*	*clefGv2	*	*clefGv2	*	*clefG2	*
*k[b-]	*	*k[]	*	*k[]	*	*k[]	*
*M3/1	*	*M3/1	*	*M3/1	*	*M3/1	*
*met(O)	*	*met(O)	*	*met(O)	*	*met(O)	*
!!section: Osanna I
!!!OMD: Osanna I
0.GG	O-	[0.G	Fi-	1G	O-	1g	O-
.	.	.	.	2B\	.	1d	.
.	.	.	.	2c\	.	.	.
.	.	.	.	1d	.	[1g	.
=64	=64	=64	=64	=64	=64	=64	=64
0C	-san-	1G]	.	2e\	.	2g/]	.
.	.	.	.	1c	.	2e/	.
.	.	1E	.	.	.	2.g/	.
.	.	.	.	2B\	.	.	.
.	.	.	.	.	.	4f/	.
1D	.	1F	.	1A	.	[1d	.
=65	=65	=65	=65	=65	=65	=65	=65
1GG	.	0G	-at	2B\	.	1d]	.
.	.	.	.	2G/	.	.	.
2BB-/	.	.	.	2d\	.	2r	.
2C/	.	.	.	2c\	.	2e/	.
1D	.	2F/	mi-	2A/	.	2d/	.
.	.	2D/	.	2B\	.	2f/	.
=66	=66	=66	=66	=66	=66	=66	=66
1C	.	1E	.	2.c\	.	2e/	.
.	.	.	.	.	.	2c/	.
.	.	.	.	4A/	.	.	.
2GG/	.	2D/	.	2B\	.	1d	.
2BB-/	.	1D	.	2G/	.	.	.
1AA	.	.	.	4F#i/	.	2r	.
.	.	.	.	2F#i/	.	.	.
.	.	2C/	.	.	.	2A/	.
.	.	.	.	4E/	.	.	.
=67	=67	=67	=67	=67	=67	=67	=67
0.GG	-na,	0D	-hi	1G	.	2B/	.
.	.	.	.	.	.	2c/	.
.	.	.	.	1G	-san-	1d	.
.	.	1r	.	1G	-na,	1d	-san-
=68	=68	=68	=68	=68	=68	=68	=68
0.r	.	1D	se-	2r	.	1d	-na,
.	.	.	.	1A	o-	.	.
.	.	2C/	-cun-	.	.	1r	.
.	.	1E	.	2G/	.	.	.
.	.	.	.	1B	.	2r	.
.	.	2D/	.	.	.	[2d/	o-
=69	=69	=69	=69	=69	=69	=69	=69
0.r	.	1F	-dum	2A/	-san-	2d/]	.
.	.	.	.	1c	.	2c/	.
.	.	2E/	ver-	.	.	1e	-san-
.	.	1G	.	2B\	.	.	.
.	.	.	.	1d	.	2d/	.
.	.	2F/	.	.	.	[2f/	.
=70	=70	=70	=70	=70	=70	=70	=70
0.r	.	1A	.	2c\	.	2f/]	.
.	.	.	.	1e	.	2e/	.
.	.	2G/	.	.	.	1g	.
.	.	1B	.	1d	.	.	.
.	.	.	.	.	.	2f/	.
.	.	2c\	.	[2e\	.	[2a/	.
=71	=71	=71	=71	=71	=71	=71	=71
0.r	.	2A/	.	2e\]	.	4a/]	.
.	.	.	.	.	.	4g/	.
.	.	2c\	.	2A/	.	2e/	.
.	.	2B\	.	2B\	.	2d/	.
.	.	2G/	.	2d\	.	2g/	.
.	.	1A	.	1c	.	2e/	.
.	.	.	.	.	.	2f#i/	.
=72	=72	=72	=72	=72	=72	=72	=72
1GG	o-	1G	-bum	0.d	-na	1g	-na
0D	-san-	1r	.	.	.	2r	.
.	.	.	.	.	.	1a	in
.	.	1r	.	.	.	.	.
.	.	.	.	.	.	2f/	ex-
=73	=73	=73	=73	=73	=73	=73	=73
1G	-na	0.r	.	2r	.	1g	-cel-
.	.	.	.	1e	in	.	.
1A	in	.	.	.	.	2e/	.
.	.	.	.	2c\	ex-	1f	.
2F\	ex-	.	.	1d	-cel-	.	.
[2G\	-cel-	.	.	.	.	2d/	.
=74	=74	=74	=74	=74	=74	=74	=74
2G\]	.	0.r	.	2B\	.	1e	.
2E\	.	.	.	1c	.	.	.
1F	.	.	.	.	.	2c/	.
.	.	.	.	2A/	.	1d	.
2D\	.	.	.	1B	.	.	.
[2E\	.	.	.	.	.	2B/	.
=75	=75	=75	=75	=75	=75	=75	=75
2E\]	.	0.r	.	2G/	.	1c	.
2C/	.	.	.	1A	.	.	.
1D	.	.	.	.	.	2A/	.
.	.	.	.	2F/	.	1B	.
2BBn/	.	.	.	1G	.	.	.
[2C/	.	.	.	.	.	[2G/	.
=76	=76	=76	=76	=76	=76	=76	=76
4C/]	.	0.r	.	2E/	.	2G/]	.
4BBni/	.	.	.	.	.	.	.
2AA/	.	.	.	2F/	.	2c/	.
2GG/	.	.	.	2.G/	.	2B/	.
2C/	.	.	.	.	.	2e/	.
.	.	.	.	4F/	.	.	.
2BBni/	.	.	.	1D	.	2d/	.
[2GG/	.	.	.	.	.	[2g/	.
=77	=77	=77	=77	=77	=77	=77	=77
2GG/]	.	0.r	.	1G	.	4g/]	.
.	.	.	.	.	.	4f/	.
2BBni/	.	.	.	.	.	2d/	.
2AA/	.	.	.	2A/	.	4e/	.
.	.	.	.	.	.	2f/	.
2D\	.	.	.	2B\	.	.	.
.	.	.	.	.	.	4g/	.
2C/	.	.	.	2c\	.	2e/	.
2F\	.	.	.	2A/	.	2a/	.
=78	=78	=78	=78	=78	=78	=78	=78
2E\	.	0.r	.	1B	.	2g/	.
2.G\	.	.	.	.	.	2.e/	.
.	.	.	.	1G	.	.	.
4F\	.	.	.	.	.	4c/	.
2E\	.	.	.	.	.	2c/	.
1D	.	.	.	1F	.	2d/	.
.	.	.	.	.	.	2B/	.
=79	=79	=79	=79	=79	=79	=79	=79
0.Cl	-sis.	1G	tu-	0.Gl	-sis.	0.cl	-sis.
.	.	2E/	.	.	.	.	.
.	.	2F/	.	.	.	.	.
.	.	1Gl	-um.	.	.	.	.
!!LO:LB:i:g=z
=80||	=80||	=80||	=80||	=80||	=80||	=80||	=80||
*>D	*>D	*>D	*>D	*>D	*>D	*>D	*>D
*clefGv2	*	*clefG2	*	*clefGv2	*	*clefG2	*
*k[]	*	*k[]	*	*k[]	*	*k[]	*
*M3/1	*	*M3/1	*	*M2/1	*	*M2/1	*
*met(C|)	*	*met(C|)	*	*met(C|)	*	*met(C|)	*
!!section: Benedictus
!!!OMD: Benedictus
0r	.	0r	.	[0c	Be-	0c	Be-
=81.	=81	=81.	=81	=81.	=81	=81.	=81
0r	.	0r	.	0c_	.	1.e	.
.	.	.	.	.	.	2f/	.
=82	=82	=82	=82	=82	=82	=82	=82
0r	.	0r	.	0c_	.	1g	.
.	.	.	.	.	.	1a	.
=83.	=83	=83.	=83	=83.	=83	=83.	=83
0r	.	0r	.	0c]	.	1g	.
.	.	.	.	.	.	[1e	.
=84	=84	=84	=84	=84	=84	=84	=84
0r	.	0r	.	[0G	-ne-	2e/]	.
.	.	.	.	.	.	2d/	.
.	.	.	.	.	.	[1d	.
=85.	=85	=85.	=85	=85.	=85	=85.	=85
0r	.	0r	.	0G]	.	1d]	.
.	.	.	.	.	.	1B	-ne-
=86	=86	=86	=86	=86	=86	=86	=86
0r	.	0r	.	1A	-dic-	1c	-dic-
.	.	.	.	[1G	.	1B	.
=87.	=87	=87.	=87	=87.	=87	=87.	=87
0r	.	0r	.	1G]	.	0A	.
.	.	.	.	1F#i	.	.	.
=88	=88	=88	=88	=88	=88	=88	=88
0r	.	0r	.	0G	-tus	0G	-tus
=89.	=89	=89.	=89	=89.	=89	=89.	=89
0r	.	0r	.	0C	.	1r	.
.	.	.	.	.	.	1c	qui
=90	=90	=90	=90	=90	=90	=90	=90
0r	.	0r	.	1G	qui	1B	.
.	.	.	.	[1A	.	2A/	.
.	.	.	.	.	.	[2c/	.
=91.	=91	=91.	=91	=91.	=91	=91.	=91
0r	.	0r	.	1A]	.	2c/]	.
.	.	.	.	.	.	2e/	.
.	.	.	.	1B	.	2d/	.
.	.	.	.	.	.	2c/	.
=92	=92	=92	=92	=92	=92	=92	=92
0r	.	0r	.	2A/	ve-	1e	ve-
.	.	.	.	1c	.	.	.
.	.	.	.	.	.	1f	.
.	.	.	.	2d\	.	.	.
=93.	=93	=93.	=93	=93.	=93	=93.	=93
0r	.	0r	.	1e	.	1g	.
.	.	.	.	1c	.	[1a	.
=94	=94	=94	=94	=94	=94	=94	=94
0r	.	0r	.	1d	.	2a/]	.
.	.	.	.	.	.	2g/	.
.	.	.	.	1B	.	[1g	.
=95.	=95	=95.	=95	=95.	=95	=95.	=95
0r	.	0r	.	0A	.	1g]	.
.	.	.	.	.	.	1f#i	.
=96	=96	=96	=96	=96	=96	=96	=96
0r	.	0r	.	0G	-nit	[0g	-nit
=97.	=97	=97.	=97	=97.	=97	=97.	=97
0r	.	0r	.	0r	.	0g]	.
=98	=98	=98	=98	=98	=98	=98	=98
0r	.	0r	.	1D	in	0r	.
.	.	.	.	1E	.	.	.
=99.	=99	=99.	=99	=99.	=99	=99.	=99
0r	.	0r	.	2D/	no-	0r	.
.	.	.	.	1G	.	.	.
.	.	.	.	2F/	.	.	.
=100	=100	=100	=100	=100	=100	=100	=100
0r	.	0r	.	1.G	.	1d	in
.	.	.	.	.	.	1e	.
.	.	.	.	2A/	.	.	.
=101.	=101	=101.	=101	=101.	=101	=101.	=101
0r	.	0r	.	2B\	.	2d/	no-
.	.	.	.	2c\	.	1g	.
.	.	.	.	1A	.	.	.
.	.	.	.	.	.	2f#i/	.
=102	=102	=102	=102	=102	=102	=102	=102
0r	.	0r	.	1G	.	1.g	.
.	.	.	.	[1E	.	.	.
.	.	.	.	.	.	2a/	.
=103.	=103	=103.	=103	=103.	=103	=103.	=103
0r	.	0r	.	1E]	.	2b\	.
.	.	.	.	.	.	2cc\	.
.	.	.	.	1F	.	1a	.
=104	=104	=104	=104	=104	=104	=104	=104
0r	.	0r	.	2E/	.	1g	.
.	.	.	.	1G	.	.	.
.	.	.	.	.	.	[1e	.
.	.	.	.	[2C/	.	.	.
=105.	=105	=105.	=105	=105.	=105	=105.	=105
0r	.	0r	.	2C/]	.	1e]	.
.	.	.	.	2E/	.	.	.
.	.	.	.	1D	-mi-	1f	.
=106	=106	=106	=106	=106	=106	=106	=106
0r	.	0r	.	1C	-ne,	2e/	.
.	.	.	.	.	.	1g	.
.	.	.	.	1r	.	.	.
.	.	.	.	.	.	[2c/	.
=107.	=107	=107.	=107	=107.	=107	=107.	=107
0r	.	0r	.	1c	in	2c/]	.
.	.	.	.	.	.	2e/	.
.	.	.	.	2B\	no-	1d	-mi-
.	.	.	.	2A/	.	.	.
=108	=108	=108	=108	=108	=108	=108	=108
0r	.	0r	.	1c	.	1c	-ne,
.	.	.	.	2d\	.	1r	.
.	.	.	.	[2e\	.	.	.
=109.	=109	=109.	=109	=109.	=109	=109.	=109
0r	.	0r	.	2e\]	.	1r	.
.	.	.	.	1c	.	.	.
.	.	.	.	.	.	1c	in
.	.	.	.	2A/	.	.	.
=110	=110	=110	=110	=110	=110	=110	=110
0r	.	0r	.	2B\	.	2d/	no-
.	.	.	.	2c\	.	1e	.
.	.	.	.	1A	.	.	.
.	.	.	.	.	.	[2c/	.
=111.	=111	=111.	=111	=111.	=111	=111.	=111
0r	.	0r	.	1r	.	2c/]	.
.	.	.	.	.	.	2A/	.
.	.	.	.	1E	.	2B/	.
.	.	.	.	.	.	2c/	.
=112	=112	=112	=112	=112	=112	=112	=112
0r	.	0r	.	1.F	.	1A	.
.	.	.	.	.	.	1c	.
.	.	.	.	[2E/	.	.	.
=113.	=113	=113.	=113	=113.	=113	=113.	=113
0r	.	0r	.	2E/]	.	1B	.
.	.	.	.	1G	.	.	.
.	.	.	.	.	.	[1e	.
.	.	.	.	2A/	.	.	.
=114	=114	=114	=114	=114	=114	=114	=114
0r	.	0r	.	2G/	.	1e]	.
.	.	.	.	2E/	.	.	.
.	.	.	.	1F	-mi-	1d	-mi-
=115.	=115	=115.	=115	=115.	=115	=115.	=115
0r	.	0r	.	1E	-ne	0e	-ne
.	.	.	.	1r	.	.	.
=116	=116	=116	=116	=116	=116	=116	=116
0r	.	0r	.	1c	do-	2r	.
.	.	.	.	.	.	2a/	do-
.	.	.	.	2B\	.	2g/	.
.	.	.	.	[2A/	.	2e/	.
=117.	=117	=117.	=117	=117.	=117	=117.	=117
0r	.	0r	.	2A/]	.	2f/	.
.	.	.	.	2G/	.	1g	.
.	.	.	.	2E/	.	.	.
.	.	.	.	2F/	.	2f/	.
=118	=118	=118	=118	=118	=118	=118	=118
0r	.	0r	.	1G	.	2d/	.
.	.	.	.	.	.	2e/	.
.	.	.	.	2F/	.	1f	.
.	.	.	.	2D/	.	.	.
=119.	=119	=119.	=119	=119.	=119	=119.	=119
0r	.	0r	.	2E/	.	2e/	.
.	.	.	.	1F	.	2c/	.
.	.	.	.	.	.	2d/	.
.	.	.	.	2E/	.	[2e/	.
=120	=120	=120	=120	=120	=120	=120	=120
0r	.	0r	.	2C/	.	2e/]	.
.	.	.	.	2D/	.	2f/	.
.	.	.	.	1E	.	4g/	.
.	.	.	.	.	.	4f/	.
.	.	.	.	.	.	2g/	.
=121.	=121	=121.	=121	=121.	=121	=121.	=121
0r	.	0r	.	1F	-mi-	2a/	.
.	.	.	.	.	.	2r	.
.	.	.	.	1G	.	2g/	-mi-
.	.	.	.	.	.	[2e/	.
=122	=122	=122	=122	=122	=122	=122	=122
0r	.	0r	.	2A/	.	2e/]	.
.	.	.	.	2F/	.	2f/	.
.	.	.	.	2G/	.	2e/	.
.	.	.	.	2E/	.	2c/	.
=123.	=123	=123.	=123	=123.	=123	=123.	=123
0r	.	0r	.	1F	.	2d/	.
.	.	.	.	.	.	2A/	.
.	.	.	.	1G	.	2B/	.
.	.	.	.	.	.	4A/	.
.	.	.	.	.	.	4B/	.
=124	=124	=124	=124	=124	=124	=124	=124
0r	.	0r	.	0Cl	-ni.	0cl	-ni.
!!LO:LB:i:g=z
=125||	=125||	=125||	=125||	=125||	=125||	=125||	=125||
*>E	*>E	*>E	*>E	*>E	*>E	*>E	*>E
*clefF4	*	*clefGv2	*	*clefGv2	*	*clefG2	*
*k[b-]	*	*k[]	*	*k[]	*	*k[]	*
*M2/1	*	*M2/1	*	*M2/1	*	*M2/1	*
*met(C|)	*	*met(C|)	*	*met(C|)	*	*met(C|)	*
!!section: Osanna II
!!!OMD: Osanna II
[0C	O-	0G	Be-	0c	O-	[0e	O-
=126.	=126	=126.	=126	=126.	=126	=126.	=126
0C]	.	0G	-a-	1.c	.	0e]	.
.	.	.	.	2B\	.	.	.
=127	=127	=127	=127	=127	=127	=127	=127
0C	.	3%4cV	.	2A/	.	0e	.
.	.	.	.	2G/	.	.	.
.	.	.	.	1G	.	.	.
.	.	3%2BZ	.	.	.	.	.
=128.	=128	=128.	=128	=128.	=128	=128.	=128
1D	.	1A	-ta	1F	.	1d	.
1E	.	1G	.	1E	.	1c	.
=129	=129	=129	=129	=129	=129	=129	=129
1.F	.	0A	es,	0D	.	1d	.
.	.	.	.	.	.	1f	.
2E\	.	.	.	.	.	.	.
=130.	=130	=130.	=130	=130.	=130	=130.	=130
1C	.	1G	Ma-	1E	.	1e	.
1D	.	1F	.	1F	.	2.d/	.
.	.	.	.	.	.	4c/	.
=131	=131	=131	=131	=131	=131	=131	=131
1C	.	1G	-ri-	1E	.	0e	.
1AA	.	[1A	.	1C	.	.	.
=132.	=132	=132.	=132	=132.	=132	=132.	=132
0BB-	.	2A/]	.	0D	.	0d	.
.	.	2G/	.	.	.	.	.
.	.	2G/	.	.	.	.	.
.	.	2F/	.	.	.	.	.
=133	=133	=133	=133	=133	=133	=133	=133
0AA	.	0A	-a,	0E	.	0c	.
=134.	=134	=134.	=134	=134.	=134	=134.	=134
1D	-san-	0r	.	1F	-san-	1d	-san-
[1C	.	.	.	[1E	.	1e	.
=135	=135	=135	=135	=135	=135	=135	=135
1C]	.	0G	que	2E/]	.	1c	.
.	.	.	.	2D/	.	.	.
1BB-	.	.	.	[1D	.	1d	.
=136.	=136	=136.	=136	=136.	=136	=136.	=136
0AA	.	0F	.	1D]	.	1r	.
.	.	.	.	1C	.	1A	.
=137	=137	=137	=137	=137	=137	=137	=137
0GG	.	0G	cre-	1D	.	1.B	.
.	.	.	.	1E	.	.	.
.	.	.	.	.	.	2c/	.
=138.	=138	=138.	=138	=138.	=138	=138.	=138
1.D	.	0A	-di-	0F	.	0A	.
2E\	.	.	.	.	.	.	.
=139	=139	=139	=139	=139	=139	=139	=139
1F	.	1.A	-di-	1D	.	0a	.
1D	.	.	.	1F	.	.	.
.	.	2B\	.	.	.	.	.
=140.	=140	=140.	=140	=140.	=140	=140.	=140
1E	.	1c	.	1G	.	1g	.
1F	.	[1d	.	1A	.	1f	.
=141	=141	=141	=141	=141	=141	=141	=141
1G	.	2d\]	.	1B	.	1d	.
.	.	2c\	.	.	.	.	.
1E	.	[1c	.	1G	.	1e	.
=142.	=142	=142.	=142	=142.	=142	=142.	=142
0D	.	1c]	.	2A/	.	1.f	.
.	.	.	.	1F	.	.	.
.	.	1B	.	.	.	.	.
.	.	.	.	2E/	.	2g/	.
=143	=143	=143	=143	=143	=143	=143	=143
[0C	-na	[0c	-sti	1G	-na	0e	-na
.	.	.	.	1r	.	.	.
=144.	=144	=144.	=144	=144.	=144	=144.	=144
0C]	.	0c]	.	2E/	in	1r	.
.	.	.	.	2F/	.	.	.
.	.	.	.	[1G	.	1c	in
=145	=145	=145	=145	=145	=145	=145	=145
1GG	in	0r	.	2G/]	.	1d	.
.	.	.	.	2F/	.	.	.
1C	ex-	.	.	1E	ex-	2e/	ex-
.	.	.	.	.	.	[2g/	-cel-
=146.	=146	=146.	=146	=146.	=146	=146.	=146
1BB-	-cel-	0r	.	1D	-cel-	2g/]	.
.	.	.	.	.	.	2f/	.
1C	.	.	.	1E	.	1e	.
=147	=147	=147	=147	=147	=147	=147	=147
0D	.	1A	per-	0F	.	0d	.
.	.	1B	-fi-	.	.	.	.
=148.	=148	=148.	=148	=148.	=148	=148.	=148
0C	.	1c	-ci-	1G	.	1.e	.
.	.	1A	.	1E	.	.	.
.	.	.	.	.	.	2f/	.
=149	=149	=149	=149	=149	=149	=149	=149
1D	.	1A	-en-	1F	.	0d	-sis,
1BB-	.	1G	.	[1D	.	.	.
=150.	=150	=150.	=150	=150.	=150	=150.	=150
0AA	.	0F	-tur	1D]	.	1r	.
.	.	.	.	1C	.	1A	in
=151	=151	=151	=151	=151	=151	=151	=151
0GG	.	1G	in	0D	-sis,	1B	.
.	.	[1G	.	.	.	2c/	ex-
.	.	.	.	.	.	[2d/	-cel-
=152.	=152	=152.	=152	=152.	=152	=152.	=152
0D	.	1G]	.	0r	.	2d/]	.
.	.	.	.	.	.	2c/	.
.	.	1F#i	.	.	.	1A	.
=153	=153	=153	=153	=153	=153	=153	=153
[0GG	-sis,	[0G	te	[0d	in	1B	-sis,
.	.	.	.	.	.	1G	.
=154.	=154	=154.	=154	=154.	=154	=154.	=154
0GG]	.	0G]	.	0d]	.	1r	.
.	.	.	.	.	.	2B/	in
.	.	.	.	.	.	2c/	.
=155	=155	=155	=155	=155	=155	=155	=155
0r	.	0G	que	1B	.	2d/	.
.	.	.	.	.	.	2e/	.
.	.	.	.	1G	ex-	2d/	ex-
.	.	.	.	.	.	[2g/	-cel-
=156.	=156	=156.	=156	=156.	=156	=156.	=156
0r	.	1G	dic-	1d	-cel-	2g/]	.
.	.	.	.	.	.	2f/	.
.	.	[1A	.	1c	.	2e/	.
.	.	.	.	.	.	2d/	.
=157	=157	=157	=157	=157	=157	=157	=157
0r	.	2A/]	.	0A	.	1e	.
.	.	2G/	.	.	.	.	.
.	.	1F	.	.	.	2f/	.
.	.	.	.	.	.	2d/	.
=158.	=158	=158.	=158	=158.	=158	=158.	=158
0r	.	0E	-ta	1.G	.	2e/	.
.	.	.	.	.	.	1c#i	.
.	.	.	.	2F/	.	2B/	.
=159	=159	=159	=159	=159	=159	=159	=159
0r	.	0D	sunt	1A	.	0d	-sis,
.	.	.	.	1B	.	.	.
=160.	=160	=160.	=160	=160.	=160	=160.	=160
1D	in	0F	ti-	2A/	.	0r	.
.	.	.	.	2.d\	.	.	.
1F	ex-	.	.	.	.	.	.
.	.	.	.	4c\	.	.	.
.	.	.	.	2d\	.	.	.
=161	=161	=161	=161	=161	=161	=161	=161
0E	-cel-	0G	.	2e\	.	0r	.
.	.	.	.	2B\	.	.	.
.	.	.	.	2c#i\	.	.	.
.	.	.	.	4B\	.	.	.
.	.	.	.	4c#i\	.	.	.
=162.	=162	=162.	=162	=162.	=162	=162.	=162
1.D	-sis,	0A	-bi	1d	-sis,	0r	.
.	.	.	.	1r	.	.	.
2E\	.	.	.	.	.	.	.
=163	=163	=163	=163	=163	=163	=163	=163
1F	.	1A	a	2c\	in	0r	.
.	.	.	.	2A/	ex-	.	.
1G	ex-	[1G	do-	[1B	-cel-	.	.
=164.	=164	=164.	=164	=164.	=164	=164.	=164
1.E	-cel-	1G]	.	2B\]	.	0r	.
.	.	.	.	2c\	.	.	.
.	.	1G	-mi-	2B\	.	.	.
2C/	.	.	.	2A/	.	.	.
=165	=165	=165	=165	=165	=165	=165	=165
0C	.	1.G	-no.	1c	.	0r	.
.	.	.	.	2G/	.	.	.
.	.	2E/	.	[2A/	.	.	.
=166.	=166	=166.	=166	=166.	=166	=166.	=166
1D	.	1F	.	2A/]	.	0r	.
.	.	.	.	2B\	.	.	.
1AA	.	[1E	.	2.c\	.	.	.
.	.	.	.	4B\	.	.	.
=167	=167	=167	=167	=167	=167	=167	=167
1C	.	2E/]	.	2A/	.	0r	.
.	.	2D/	.	2G/	.	.	.
1BB-	.	[1D	.	[1G	.	.	.
=168.	=168	=168.	=168	=168.	=168	=168.	=168
0AA	.	1D]	.	2G/]	.	0r	.
.	.	.	.	2F#i/	.	.	.
.	.	1C	.	2F#i/	.	.	.
.	.	.	.	2E/	.	.	.
=169	=169	=169	=169	=169	=169	=169	=169
[0GG	-sis,	0D	.	1G	-sis,	1.B	in
.	.	.	.	1r	.	.	.
.	.	.	.	.	.	2c/	.
=170.	=170	=170.	=170	=170.	=170	=170.	=170
0GG]	.	0r	.	0B	in	1d	.
.	.	.	.	.	.	1g	ex-
=171	=171	=171	=171	=171	=171	=171	=171
0D	.	0F	Al-	0A	ex-	1f	-cel-
.	.	.	.	.	.	[1a	.
=172.	=172	=172.	=172	=172.	=172	=172.	=172
1r	.	0F	-le-	0d	-cel-	2a/]	.
.	.	.	.	.	.	2g/	.
1D	ex-	.	.	.	.	1f	.
=173	=173	=173	=173	=173	=173	=173	=173
1E	-cel-	[0G	.	1B	.	2e/	.
.	.	.	.	.	.	1g	.
1C	.	.	.	1c	.	.	.
.	.	.	.	.	.	2f/	.
=174.	=174	=174.	=174	=174.	=174	=174.	=174
1G	.	0G]	.	2d\	.	1d	.
.	.	.	.	1B	.	.	.
1E	.	.	.	.	.	[1e	.
.	.	.	.	2A/	.	.	.
=175	=175	=175	=175	=175	=175	=175	=175
0C	.	[0G	-lu-	2c\	.	2e/]	.
.	.	.	.	2r	.	2c/	.
.	.	.	.	1C	.	[1c	.
=176.	=176	=176.	=176	=176.	=176	=176.	=176
0GG	.	0G]	.	0D	.	2c/]	.
.	.	.	.	.	.	2B/	.
.	.	.	.	.	.	2B/	.
.	.	.	.	.	.	2A/	.
=177	=177	=177	=177	=177	=177	=177	=177
[0Cl	-sis.	[0Gl	-ia.	1.E	.	[0cl	-sis.
.	.	.	.	2C/	.	.	.
=178.	=178	=178.	=178	=178.	=178	=178.	=178
0C]	.	0G]	.	0Cl	-sis.	0c]	.
==	==	==	==	==	==	==	==
*-	*-	*-	*-	*-	*-	*-	*-
!!!RDF**kern: l=long note in original notation
!!!RDF**kern: i=editorial accidental
!!!RDF**kern: V=start of tuplet marker
!!!RDF**kern: Z=end of tuplet marker
!!!ENC:	Alejandro, Planchart
!!!END:	2014/07/25/
!!!EED:	Alejandro Planchart, Jesse Rodin
!!!EEV:	2014/07/27/
!!!ONB:	Translated from SCORE and edited on 2014/07/27/ by Craig Sapp
!!!SMS: Ed. J. Rodin based on edition by A. Planchart
!!muse2ps: T^@{OPR}^u^@{ONM}{. }@{OTL}^C^@{COM}\n@{SMS}^i2I150v85,85,85,130Q1c175z18
